tests/bdn_all_log2vid_3D_16_v004.cube
TITLE "A Look generated by Color Symmetry's LookAuthor node."
LUT_3D_SIZE 6
0.00587	0.00489 0.00391
0.03069	0.00684 0.00391
0.15875	0.00606 0.01486
0.43284	0.00000 0.01212
0.58690	0.00000 0.00000
0.62561	0.00000 0.00000
0.00684	0.02287 0.00684
0.05431	0.03969 0.00782
0.21607	0.06197 0.01674
0.51543	0.05337 0.00000
0.66866	0.00000 0.00000
0.70811	0.00880 0.00000
0.00000	0.12121 0.01896
0.06158	0.15648 0.01357
0.30440	0.22366 0.00000
0.65885	0.26659 0.00000
0.81103	0.26158 0.00000
0.85083	0.29717 0.00000
0.00000	0.30616 0.00000
0.01681	0.36352 0.00000
0.39805	0.49560 0.00000
0.79378	0.58557 0.00000
0.96547	0.61122 0.00000
0.99844	0.63675 0.00000
0.00000	0.40059 0.00000
0.00000	0.47351 0.00000
0.44066	0.62326 0.00000
0.85091	0.73458 0.00000
1.00000	0.77044 0.00000
1.00000	0.77517 0.00000
0.00000	0.44379 0.00000
0.00293	0.52082 0.00000
0.48035	0.66002 0.00000
0.86354	0.76344 0.00000
1.00000	0.79902 0.00000
1.00000	0.80743 0.00000
0.00528	0.00684 0.01975
0.03167	0.00880 0.03030
0.15894	0.01087 0.04614
0.43155	0.00000 0.04888
0.58944	0.00000 0.03026
0.63011	0.00000 0.02620
0.00000	0.03578 0.04602
0.03377	0.04297 0.04698
0.21435	0.06940 0.06006
0.52680	0.05074 0.04303
0.67229	0.00023 0.02002
0.71652	0.01443 0.01595
0.00000	0.14448 0.07769
0.01645	0.18018 0.07957
0.30778	0.25297 0.06326
0.67227	0.29638 0.00000
0.81956	0.29760 0.00000
0.86197	0.33091 0.00000
0.00000	0.33568 0.09548
0.00000	0.39198 0.07938
0.37822	0.52867 0.00000
0.81092	0.62712 0.00000
0.96567	0.64684 0.00000
0.99914	0.67097 0.00000
0.00000	0.43109 0.12610
0.00000	0.50200 0.11404
0.39990	0.65502 0.00075
0.84988	0.77146 0.00000
1.00000	0.80420 0.00000
1.00000	0.81466 0.00000
0.00000	0.48895 0.20352
0.00000	0.56633 0.20184
0.43093	0.71183 0.14370
0.85412	0.81767 0.04352
1.00000	0.85103 0.00000
1.00000	0.86002 0.00880
0.00000	0.01369 0.14252
0.01943	0.01388 0.16012
0.15973	0.01306 0.19472
0.45474	0.00000 0.21290
0.60927	0.00000 0.21779
0.64731	0.00000 0.22991
0.00000	0.06307 0.19484
0.00460	0.07096 0.21263
0.22097	0.08852 0.24883
0.54913	0.05874 0.26727
0.69208	0.00587 0.27175
0.73431	0.03355 0.28759
0.00000	0.19746 0.27621
0.00000	0.23192 0.29466
0.28040	0.30335 0.33037
0.68785	0.34264 0.34100
0.83382	0.34244 0.34178
0.87546	0.38084 0.35546
0.00000	0.40278 0.34483
0.00000	0.46002 0.36094
0.28586	0.60290 0.38788
0.80527	0.70224 0.38334
0.96593	0.72102 0.37797
0.99918	0.74370 0.38745
0.00000	0.50264 0.40626
0.00000	0.57307 0.42619
0.26671	0.73203 0.45435
0.82569	0.84798 0.44938
0.99995	0.87929 0.44181
1.00000	0.88848 0.45017
0.00000	0.55914 0.49462
0.00000	0.63421 0.51503
0.30577	0.78225 0.55191
0.82346	0.88954 0.56497
0.99918	0.92121 0.56493
1.00000	0.92864 0.57498
0.00704	0.00059 0.32708
0.04575	0.00000 0.34995
0.18944	0.00000 0.39922
0.48074	0.00000 0.43758
0.62620	0.00000 0.44848
0.66237	0.00000 0.46510
0.00000	0.07894 0.39844
0.00000	0.08265 0.42877
0.23712	0.09177 0.48659
0.56713	0.03834 0.52884
0.70641	0.00000 0.53910
0.74956	0.02612 0.55668
0.00000	0.24575 0.50514
0.00000	0.28148 0.53998
0.25294	0.35174 0.60919
0.69024	0.38578 0.65518
0.83737	0.38452 0.66050
0.87898	0.42194 0.67429
0.00000	0.45689 0.58964
0.00000	0.51858 0.63112
0.04493	0.66171 0.70108
0.78190	0.76551 0.75469
0.95249	0.77947 0.75908
0.99120	0.79941 0.76383
0.00000	0.55347 0.64016
0.00000	0.62513 0.67865
0.02631	0.78360 0.74875
0.79490	0.90692 0.80336
0.98561	0.93841 0.81232
1.00000	0.94850 0.81603
0.00000	0.59883 0.69404
0.00000	0.67586 0.72884
0.08630	0.82405 0.79902
0.79273	0.93705 0.85181
0.98534	0.97146 0.86283
1.00000	0.97889 0.87175
0.00000	0.01212 0.46393
0.01326	0.01126 0.49345
0.20852	0.00352 0.55855
0.53079	0.00000 0.61298
0.67722	0.00000 0.63398
0.71437	0.00000 0.64907
0.00000	0.12184 0.53412
0.00000	0.13603 0.56461
0.24250	0.15284 0.63891
0.60235	0.11559 0.69594
0.74510	0.06201 0.71466
0.78588	0.10166 0.73353
0.00000	0.28848 0.63316
0.00000	0.32919 0.66827
0.20929	0.40409 0.75300
0.69194	0.43865 0.81419
0.84786	0.43730 0.83245
0.88817	0.47484 0.84919
0.00000	0.48434 0.71320
0.00000	0.54592 0.75042
0.01382	0.68648 0.83900
0.76016	0.78510 0.91312
0.94128	0.80254 0.93040
0.98045	0.82432 0.93978
0.00000	0.57732 0.75136
0.00000	0.64769 0.78827
0.00000	0.80383 0.87387
0.77185	0.92543 0.94848
0.97474	0.96090 0.97198
1.00000	0.97028 0.97654
0.00000	0.61955 0.77830
0.00000	0.69486 0.81760
0.02870	0.83969 0.89806
0.77419	0.95112 0.96587
0.97595	0.98866 0.98968
1.00000	0.99511 0.99335
0.00000	0.17889 0.58651
0.00000	0.19883 0.62581
0.24692	0.23324 0.70811
0.63402	0.22835 0.76872
0.78495	0.21095 0.78710
0.82307	0.25806 0.80743
0.00000	0.25943 0.63265
0.00000	0.28500 0.67195
0.24321	0.34127 0.75777
0.66890	0.35816 0.81947
0.82502	0.35523 0.83793
0.86530	0.39570 0.85415
0.00000	0.37361 0.68719
0.00000	0.42006 0.72942
0.16274	0.51730 0.81994
0.71535	0.56712 0.88622
0.88278	0.57400 0.90381
0.92278	0.61193 0.91613
0.00000	0.51007 0.74018
0.00000	0.57810 0.78397
0.01247	0.72086 0.87683
0.75433	0.81685 0.95171
0.94389	0.83832 0.97126
0.98358	0.85689 0.97869
0.00000	0.59120 0.77243
0.00000	0.66471 0.81369
0.00000	0.81552 0.90068
0.76500	0.93157 0.97713
0.97009	0.96540 1.00000
1.00000	0.97380 1.00000
0.00000	0.63245 0.79570
0.00000	0.70694 0.83597
0.03187	0.84497 0.91437
0.76794	0.95210 0.98280
0.96950	0.98964 1.00000
1.00000	0.99609 1.00000
