tests/bdn_all_log2vid_3D_16_v004.cube
TITLE "A Look generated by Color Symmetry's LookAuthor node."
LUT_3D_SIZE 16
0.00587	0.00489 0.00391
0.01095	0.00489 0.00391
0.01779	0.00587 0.00391
0.03069	0.00684 0.00391
0.04379	0.00684 0.00391
0.09677	0.01075 0.00782
0.15875	0.00606 0.01486
0.25103	0.01290 0.01701
0.35816	0.00000 0.01896
0.43284	0.00000 0.01212
0.50440	0.00000 0.00391
0.55152	0.00000 0.00000
0.58690	0.00000 0.00000
0.60547	0.00000 0.00000
0.61720	0.00000 0.00000
0.62561	0.00000 0.00000
0.00587	0.00802 0.00391
0.01427	0.01036 0.00411
0.02346	0.01212 0.00489
0.03597	0.01310 0.00489
0.05200	0.01505 0.00489
0.10401	0.02092 0.00782
0.17024	0.01642 0.01486
0.26440	0.02463 0.01595
0.37322	0.00528 0.01623
0.44829	0.00000 0.00786
0.51984	0.00000 0.00000
0.56618	0.00000 0.00000
0.60203	0.00000 0.00000
0.62045	0.00000 0.00000
0.63202	0.00000 0.00000
0.64106	0.00000 0.00000
0.00587	0.01310 0.00489
0.01603	0.01662 0.00528
0.02835	0.02088 0.00587
0.04442	0.02389 0.00587
0.06393	0.02678 0.00626
0.11457	0.03519 0.00880
0.18768	0.03234 0.01537
0.28446	0.04180 0.01451
0.39629	0.02678 0.01189
0.47214	0.00899 0.00176
0.54370	0.00000 0.00000
0.58983	0.00000 0.00000
0.62557	0.00000 0.00000
0.64418	0.00000 0.00000
0.65572	0.00000 0.00000
0.66452	0.00000 0.00000
0.00684	0.02287 0.00684
0.01623	0.02639 0.00684
0.02991	0.03089 0.00743
0.05431	0.03969 0.00782
0.08016	0.04712 0.00841
0.13607	0.06041 0.01075
0.21607	0.06197 0.01674
0.32164	0.07198 0.01208
0.43832	0.06588 0.00414
0.51543	0.05337 0.00000
0.58886	0.02737 0.00000
0.63449	0.00328 0.00000
0.66866	0.00000 0.00000
0.68798	0.00364 0.00000
0.69978	0.00751 0.00000
0.70811	0.00880 0.00000
0.00587	0.02542 0.00684
0.01720	0.03167 0.00782
0.03238	0.03988 0.00782
0.05982	0.05365 0.00927
0.09052	0.06530 0.00978
0.15386	0.08289 0.01075
0.23949	0.09345 0.01294
0.35515	0.10655 0.00430
0.47906	0.10381 0.00000
0.55855	0.09756 0.00000
0.63128	0.08055 0.00000
0.67546	0.05904 0.00000
0.70921	0.05247 0.00000
0.72817	0.07105 0.00000
0.74041	0.08090 0.00000
0.74897	0.08680 0.00000
0.00000	0.07918 0.01271
0.01447	0.08426 0.01271
0.03363	0.09071 0.01369
0.06901	0.10205 0.01369
0.11105	0.11691 0.01369
0.17889	0.13685 0.00978
0.27410	0.15699 0.00352
0.39511	0.17654 0.00000
0.52473	0.18534 0.00000
0.60665	0.18788 0.00000
0.68133	0.18182 0.00000
0.72532	0.17537 0.00000
0.75894	0.17556 0.00000
0.77791	0.18944 0.00000
0.79022	0.19804 0.00000
0.79863	0.20528 0.00000
0.00000	0.12121 0.01896
0.00000	0.12864 0.01775
0.01720	0.13842 0.01611
0.06158	0.15648 0.01357
0.11844	0.17634 0.00876
0.20332	0.20059 0.00000
0.30440	0.22366 0.00000
0.43683	0.24817 0.00000
0.57646	0.26100 0.00000
0.65885	0.26659 0.00000
0.73490	0.26452 0.00000
0.77853	0.25842 0.00000
0.81103	0.26158 0.00000
0.82991	0.27898 0.00000
0.84168	0.28974 0.00000
0.85083	0.29717 0.00000
0.00000	0.18436 0.02033
0.00000	0.19308 0.01615
0.00989	0.20524 0.01118
0.06354	0.22698 0.00321
0.13275	0.25584 0.00000
0.23148	0.28661 0.00000
0.34397	0.32004 0.00000
0.48039	0.34972 0.00000
0.62424	0.37517 0.00000
0.70960	0.38467 0.00000
0.78847	0.38944 0.00000
0.83578	0.38933 0.00000
0.86940	0.39550 0.00000
0.88798	0.41095 0.00000
0.89982	0.42053 0.00000
0.90811	0.42835 0.00000
0.00000	0.25826 0.00508
0.00000	0.26823 0.00031
0.00000	0.28250 0.00000
0.03320	0.30674 0.00000
0.13165	0.34084 0.00000
0.24868	0.37908 0.00000
0.37478	0.42276 0.00000
0.52278	0.45634 0.00000
0.67836	0.49134 0.00000
0.76305	0.49912 0.00000
0.84555	0.50753 0.00000
0.89415	0.50909 0.00000
0.92978	0.51789 0.00000
0.94678	0.53372 0.00000
0.95746	0.54428 0.00000
0.96520	0.55210 0.00000
0.00000	0.30616 0.00000
0.00000	0.31828 0.00000
0.00000	0.33431 0.00000
0.01681	0.36352 0.00000
0.13529	0.40352 0.00000
0.26608	0.44614 0.00000
0.39805	0.49560 0.00000
0.54890	0.53247 0.00000
0.70315	0.57212 0.00000
0.79378	0.58557 0.00000
0.87801	0.59824 0.00000
0.92997	0.60328 0.00000
0.96547	0.61122 0.00000
0.98135	0.62307 0.00000
0.99101	0.63066 0.00000
0.99844	0.63675 0.00000
0.00000	0.34995 0.00000
0.00000	0.36325 0.00000
0.00000	0.38162 0.00000
0.00293	0.41505 0.00000
0.12923	0.45767 0.00000
0.27273	0.50538 0.00000
0.41388	0.55953 0.00000
0.57028	0.60020 0.00000
0.72942	0.64575 0.00000
0.82209	0.66080 0.00000
0.91007	0.67840 0.00000
0.96227	0.68368 0.00000
0.99765	0.69189 0.00000
1.00000	0.69912 0.00000
1.00000	0.70362 0.00000
1.00000	0.70772 0.00000
0.00000	0.37458 0.00000
0.00000	0.38905 0.00000
0.00000	0.40950 0.00000
0.00000	0.44516 0.00000
0.12434	0.49032 0.00000
0.27957	0.53978 0.00000
0.42420	0.59550 0.00000
0.58456	0.64027 0.00000
0.74624	0.68759 0.00000
0.84008	0.70557 0.00000
0.92747	0.72434 0.00000
0.97971	0.73255 0.00000
1.00000	0.73842 0.00000
1.00000	0.74065 0.00000
1.00000	0.74448 0.00000
1.00000	0.74741 0.00000
0.00000	0.40059 0.00000
0.00000	0.41603 0.00000
0.00000	0.43679 0.00000
0.00000	0.47351 0.00000
0.13724	0.51914 0.00000
0.29169	0.56774 0.00000
0.44066	0.62326 0.00000
0.59906	0.66804 0.00000
0.75953	0.71597 0.00000
0.85091	0.73458 0.00000
0.93881	0.75425 0.00000
0.98964	0.76297 0.00000
1.00000	0.77044 0.00000
1.00000	0.77283 0.00000
1.00000	0.77419 0.00000
1.00000	0.77517 0.00000
0.00000	0.42170 0.00000
0.00000	0.43734 0.00000
0.00000	0.45963 0.00000
0.01103	0.49791 0.00000
0.16618	0.54377 0.00000
0.31320	0.58983 0.00000
0.46029	0.64113 0.00000
0.61247	0.68504 0.00000
0.76657	0.72938 0.00000
0.85709	0.74858 0.00000
0.94194	0.76852 0.00000
0.99109	0.77732 0.00000
1.00000	0.78479 0.00000
1.00000	0.78843 0.00000
1.00000	0.79042 0.00000
1.00000	0.79159 0.00000
0.00000	0.43460 0.00000
0.00000	0.45021 0.00000
0.00000	0.47245 0.00000
0.01091	0.51152 0.00000
0.18416	0.55875 0.00000
0.32884	0.60352 0.00000
0.47214	0.65200 0.00000
0.62158	0.69501 0.00000
0.77079	0.73783 0.00000
0.86119	0.75738 0.00000
0.94330	0.77595 0.00000
0.99218	0.78596 0.00000
1.00000	0.79327 0.00000
1.00000	0.79707 0.00000
1.00000	0.79937 0.00000
1.00000	0.80117 0.00000
0.00000	0.44379 0.00000
0.00000	0.45924 0.00000
0.00000	0.48133 0.00000
0.00293	0.52082 0.00000
0.19746	0.56911 0.00000
0.34018	0.61290 0.00000
0.48035	0.66002 0.00000
0.62776	0.70225 0.00000
0.77419	0.74350 0.00000
0.86354	0.76344 0.00000
0.94428	0.78201 0.00000
0.99374	0.79218 0.00000
1.00000	0.79902 0.00000
1.00000	0.80313 0.00000
1.00000	0.80547 0.00000
1.00000	0.80743 0.00000
0.00587	0.00489 0.00684
0.01099	0.00587 0.00805
0.01838	0.00587 0.00919
0.03069	0.00684 0.00919
0.04555	0.00782 0.00997
0.09677	0.01173 0.01388
0.15875	0.00704 0.02029
0.25103	0.01388 0.02373
0.35808	0.00000 0.02522
0.43206	0.00000 0.01857
0.50440	0.00000 0.01114
0.55152	0.00000 0.00391
0.58788	0.00000 0.00000
0.60598	0.00000 0.00000
0.61756	0.00000 0.00000
0.62659	0.00000 0.00000
0.00469	0.01001 0.01036
0.01193	0.01131 0.01103
0.02031	0.01263 0.01134
0.03318	0.01369 0.01134
0.05307	0.01620 0.01247
0.10166	0.02029 0.01525
0.17107	0.01822 0.02232
0.26440	0.02474 0.02395
0.37350	0.00567 0.02475
0.44863	0.00000 0.01724
0.52121	0.00000 0.00821
0.56696	0.00000 0.00117
0.60334	0.00000 0.00000
0.62206	0.00000 0.00000
0.63323	0.00000 0.00000
0.64207	0.00000 0.00000
0.00391	0.01564 0.01263
0.01212	0.01769 0.01310
0.02386	0.02088 0.01310
0.03949	0.02405 0.01349
0.06477	0.02868 0.01502
0.11085	0.03480 0.01701
0.18818	0.03425 0.02367
0.28446	0.04208 0.02307
0.39665	0.02776 0.02151
0.47278	0.00918 0.01199
0.54663	0.00000 0.00168
0.59042	0.00000 0.00000
0.62682	0.00000 0.00000
0.64561	0.00000 0.00000
0.65736	0.00000 0.00000
0.66600	0.00000 0.00000
0.00469	0.02542 0.01466
0.01290	0.02737 0.01466
0.02514	0.03148 0.01487
0.04942	0.03995 0.01564
0.08109	0.04845 0.01706
0.13255	0.05982 0.01865
0.21646	0.06405 0.02512
0.32199	0.07238 0.02135
0.43844	0.06635 0.01422
0.51682	0.05327 0.00215
0.59101	0.02522 0.00000
0.63480	0.00338 0.00000
0.67010	0.00000 0.00000
0.68920	0.00481 0.00000
0.70105	0.00870 0.00000
0.71007	0.00997 0.00000
0.00274	0.03050 0.01623
0.01329	0.03593 0.01720
0.02865	0.04441 0.01818
0.05603	0.05831 0.01916
0.09149	0.07026 0.02014
0.15187	0.08622 0.02111
0.24129	0.09759 0.02330
0.35623	0.11065 0.01561
0.47988	0.10811 0.00349
0.55999	0.10342 0.00000
0.63441	0.08583 0.00000
0.67729	0.06663 0.00000
0.71124	0.05832 0.00000
0.73030	0.07583 0.00000
0.74243	0.08599 0.00000
0.75109	0.09208 0.00000
0.00000	0.08328 0.02405
0.00802	0.08739 0.02405
0.02639	0.09286 0.02405
0.06127	0.10420 0.02405
0.10987	0.12082 0.02502
0.17576	0.13881 0.02131
0.27527	0.16012 0.01603
0.39589	0.17900 0.00047
0.52504	0.18737 0.00000
0.60743	0.18979 0.00000
0.68426	0.18280 0.00000
0.72630	0.17834 0.00000
0.76012	0.17908 0.00000
0.77967	0.19355 0.00000
0.79222	0.20215 0.00000
0.80078	0.20938 0.00000
0.00000	0.12571 0.03030
0.00000	0.13301 0.03015
0.00730	0.14354 0.02926
0.05183	0.16115 0.02666
0.11602	0.18190 0.02251
0.19980	0.20587 0.01196
0.30623	0.22991 0.00025
0.43793	0.25437 0.00000
0.57724	0.26714 0.00000
0.66013	0.27278 0.00000
0.73803	0.27058 0.00000
0.77983	0.26549 0.00000
0.81304	0.26784 0.00000
0.83195	0.28571 0.00000
0.84395	0.29677 0.00000
0.85283	0.30420 0.00000
0.00000	0.18944 0.03363
0.00000	0.19801 0.03177
0.00000	0.21037 0.02803
0.04156	0.23218 0.01955
0.12765	0.26149 0.00778
0.22483	0.29169 0.00000
0.34418	0.32588 0.00000
0.48133	0.35569 0.00000
0.62488	0.38037 0.00000
0.71083	0.38915 0.00000
0.79218	0.39374 0.00000
0.83638	0.39451 0.00000
0.87050	0.40099 0.00000
0.88929	0.41670 0.00000
0.90131	0.42637 0.00000
0.90987	0.43363 0.00000
0.00000	0.26401 0.02229
0.00000	0.27374 0.01879
0.00000	0.28724 0.01185
0.00601	0.31163 0.00053
0.12288	0.34686 0.00000
0.24027	0.38428 0.00000
0.37380	0.42886 0.00000
0.52239	0.46260 0.00000
0.67785	0.49666 0.00000
0.76360	0.50485 0.00000
0.84762	0.51390 0.00000
0.89409	0.51474 0.00000
0.93031	0.52363 0.00000
0.94707	0.53956 0.00000
0.95764	0.55013 0.00000
0.96579	0.55797 0.00000
0.00000	0.31144 0.00993
0.00000	0.32278 0.00492
0.00000	0.33883 0.00045
0.00000	0.36804 0.00000
0.12098	0.40887 0.00000
0.25474	0.45083 0.00000
0.39593	0.50033 0.00000
0.54784	0.53892 0.00000
0.70213	0.57767 0.00000
0.79442	0.59119 0.00000
0.88020	0.60395 0.00000
0.92919	0.60867 0.00000
0.96500	0.61681 0.00000
0.98143	0.62866 0.00000
0.99120	0.63667 0.00000
0.99863	0.64242 0.00000
0.00000	0.35523 0.00000
0.00000	0.36837 0.00000
0.00000	0.38671 0.00000
0.00000	0.41967 0.00000
0.11019	0.46389 0.00000
0.25806	0.51065 0.00000
0.41075	0.56500 0.00000
0.56884	0.60802 0.00000
0.72837	0.65251 0.00000
0.82272	0.66745 0.00000
0.91320	0.68563 0.00000
0.96129	0.69091 0.00000
0.99765	0.69912 0.00000
1.00000	0.70577 0.00000
1.00000	0.71085 0.00000
1.00000	0.71496 0.00000
0.00000	0.37967 0.00000
0.00000	0.39381 0.00000
0.00000	0.41336 0.00000
0.00000	0.44880 0.00000
0.09982	0.49509 0.00000
0.26573	0.54409 0.00000
0.41906	0.60046 0.00000
0.58190	0.64604 0.00000
0.74352	0.69244 0.00000
0.83855	0.71073 0.00000
0.92766	0.72946 0.00000
0.97849	0.73764 0.00000
1.00000	0.74414 0.00000
1.00000	0.74746 0.00000
1.00000	0.75073 0.00000
1.00000	0.75386 0.00000
0.00000	0.40821 0.00133
0.00000	0.42373 0.00078
0.00000	0.44469 0.00000
0.00000	0.48121 0.00000
0.10745	0.52780 0.00000
0.27617	0.57642 0.00000
0.43324	0.63230 0.00000
0.59406	0.67769 0.00000
0.75608	0.72500 0.00000
0.84913	0.74346 0.00000
0.93830	0.76344 0.00000
0.98807	0.77175 0.00000
1.00000	0.77947 0.00000
1.00000	0.78201 0.00000
1.00000	0.78362 0.00000
1.00000	0.78475 0.00000
0.00000	0.43011 0.00508
0.00000	0.44637 0.00262
0.00000	0.46804 0.00007
0.00000	0.50642 0.00000
0.13547	0.55299 0.00000
0.29756	0.59914 0.00000
0.45218	0.65101 0.00000
0.60751	0.69541 0.00000
0.76329	0.73935 0.00000
0.85513	0.75894 0.00000
0.94096	0.77849 0.00000
0.99001	0.78678 0.00000
1.00000	0.79453 0.00000
1.00000	0.79823 0.00000
1.00000	0.80000 0.00000
1.00000	0.80098 0.00000
0.00000	0.44364 0.00821
0.00000	0.45914 0.00312
0.00000	0.48090 0.00045
0.00000	0.52000 0.00000
0.15365	0.56798 0.00000
0.31320	0.61275 0.00000
0.46409	0.66220 0.00000
0.61637	0.70505 0.00000
0.76774	0.74741 0.00000
0.85924	0.76755 0.00000
0.94233	0.78631 0.00000
0.99140	0.79560 0.00000
1.00000	0.80313 0.00000
1.00000	0.80723 0.00000
1.00000	0.80942 0.00000
1.00000	0.81056 0.00000
0.00000	0.45220 0.01036
0.00000	0.46780 0.00477
0.00000	0.48993 0.00070
0.00000	0.52923 0.00000
0.16610	0.57834 0.00000
0.32454	0.62229 0.00000
0.47292	0.66956 0.00000
0.62307	0.71222 0.00000
0.77118	0.75347 0.00000
0.86143	0.77380 0.00000
0.94330	0.79140 0.00000
0.99281	0.80156 0.00000
1.00000	0.80938 0.00000
1.00000	0.81290 0.00000
1.00000	0.81564 0.00000
1.00000	0.81681 0.00000
0.00587	0.00587 0.01114
0.01095	0.00587 0.01329
0.01838	0.00684 0.01584
0.03167	0.00782 0.01779
0.04731	0.00880 0.01838
0.09717	0.01271 0.02268
0.15973	0.00833 0.02972
0.25087	0.01388 0.03343
0.35777	0.00000 0.03539
0.43187	0.00000 0.02944
0.50440	0.00000 0.02307
0.55249	0.00000 0.01486
0.58827	0.00000 0.00974
0.60759	0.00000 0.00684
0.61924	0.00000 0.00457
0.62796	0.00000 0.00254
0.00391	0.01114 0.01630
0.01114	0.01212 0.01683
0.01935	0.01310 0.01889
0.03205	0.01426 0.02048
0.05474	0.01743 0.02190
0.10088	0.02143 0.02561
0.17107	0.01967 0.03196
0.26440	0.02483 0.03453
0.37307	0.00611 0.03538
0.44872	0.00000 0.02882
0.52199	0.00000 0.02006
0.56722	0.00000 0.01284
0.60402	0.00000 0.00768
0.62341	0.00000 0.00536
0.63497	0.00000 0.00270
0.64352	0.00000 0.00117
0.00180	0.01916 0.02299
0.00938	0.02057 0.02323
0.01945	0.02239 0.02360
0.03445	0.02463 0.02420
0.06491	0.03042 0.02694
0.10678	0.03480 0.02835
0.18835	0.03645 0.03553
0.28481	0.04242 0.03593
0.39632	0.02815 0.03544
0.47553	0.00874 0.02635
0.54936	0.00000 0.01560
0.59100	0.00000 0.00935
0.62761	0.00000 0.00425
0.64786	0.00000 0.00196
0.65951	0.00000 0.00102
0.66823	0.00000 0.00023
0.00156	0.02952 0.02659
0.00880	0.03101 0.02659
0.01959	0.03306 0.02659
0.04257	0.04043 0.02719
0.08047	0.05031 0.03026
0.12723	0.05920 0.03124
0.21666	0.06639 0.03793
0.32199	0.07321 0.03466
0.43808	0.06725 0.02903
0.52036	0.05262 0.01697
0.59488	0.02151 0.00352
0.63559	0.00387 0.00025
0.67115	0.00000 0.00000
0.69169	0.00622 0.00000
0.70369	0.01016 0.00000
0.71241	0.01138 0.00000
0.00000	0.03726 0.02991
0.00868	0.04318 0.03122
0.02330	0.05143 0.03290
0.05013	0.06499 0.03418
0.09142	0.07672 0.03607
0.14936	0.09150 0.03707
0.24291	0.10391 0.03930
0.35821	0.11691 0.03266
0.48094	0.11515 0.02118
0.56370	0.11046 0.00569
0.63851	0.09384 0.00000
0.67926	0.07781 0.00000
0.71339	0.06862 0.00000
0.73345	0.08368 0.00000
0.74565	0.09357 0.00000
0.75406	0.09963 0.00000
0.00000	0.08837 0.03949
0.00063	0.09189 0.04008
0.01642	0.09720 0.04008
0.04962	0.10831 0.04008
0.10717	0.12571 0.04184
0.16970	0.14213 0.03851
0.27632	0.16481 0.03488
0.39789	0.18221 0.02010
0.52571	0.19101 0.00196
0.61212	0.19191 0.00000
0.68856	0.18416 0.00000
0.72813	0.18182 0.00000
0.76203	0.18393 0.00000
0.78280	0.19902 0.00000
0.79472	0.20762 0.00000
0.80391	0.21486 0.00000
0.00000	0.13294 0.04731
0.00000	0.14037 0.04737
0.00038	0.15015 0.04766
0.03797	0.16826 0.04602
0.11085	0.18990 0.04339
0.19519	0.21337 0.03480
0.30786	0.23867 0.02101
0.44007	0.26377 0.00094
0.57806	0.27683 0.00000
0.66384	0.28217 0.00000
0.74213	0.28016 0.00000
0.78211	0.27709 0.00000
0.81564	0.27952 0.00000
0.83519	0.29575 0.00000
0.84712	0.30642 0.00000
0.85631	0.31386 0.00000
0.00000	0.19726 0.05357
0.00000	0.20614 0.05306
0.00000	0.21808 0.05138
0.00978	0.23994 0.04497
0.11438	0.27006 0.03574
0.21388	0.29951 0.01713
0.34389	0.33498 0.00000
0.48313	0.36486 0.00000
0.62502	0.38804 0.00000
0.71644	0.39726 0.00000
0.79711	0.40098 0.00000
0.83773	0.40249 0.00000
0.87218	0.40899 0.00000
0.89179	0.42532 0.00000
0.90361	0.43500 0.00000
0.91238	0.44207 0.00000
0.00000	0.27273 0.04794
0.00000	0.28197 0.04574
0.00000	0.29521 0.04287
0.00000	0.31931 0.03089
0.10160	0.35515 0.01196
0.22757	0.39277 0.00000
0.37204	0.43773 0.00000
0.52199	0.47253 0.00000
0.67586	0.50489 0.00000
0.76673	0.51382 0.00000
0.85079	0.52239 0.00000
0.89395	0.52392 0.00000
0.93001	0.53232 0.00000
0.94800	0.54843 0.00000
0.95855	0.55890 0.00000
0.96676	0.56657 0.00000
0.00000	0.32016 0.04113
0.00000	0.33126 0.03799
0.00000	0.34682 0.03238
0.00000	0.37584 0.01444
0.08868	0.41779 0.00003
0.23636	0.46061 0.00000
0.39109	0.50977 0.00000
0.54756	0.55112 0.00000
0.70104	0.58741 0.00000
0.79891	0.60283 0.00000
0.88426	0.61447 0.00000
0.92913	0.61877 0.00000
0.96520	0.62712 0.00000
0.98189	0.63855 0.00000
0.99218	0.64655 0.00000
0.99883	0.65240 0.00000
0.00000	0.36344 0.03206
0.00000	0.37627 0.02600
0.00000	0.39413 0.01775
0.00000	0.42674 0.00125
0.06671	0.47226 0.00000
0.23578	0.51984 0.00000
0.40418	0.57458 0.00000
0.56731	0.62029 0.00000
0.72630	0.66237 0.00000
0.82678	0.67957 0.00000
0.91730	0.69756 0.00000
0.96031	0.70088 0.00000
0.99707	0.70933 0.00000
1.00000	0.71656 0.00000
1.00000	0.72141 0.00000
1.00000	0.72551 0.00000
0.00000	0.38698 0.02706
0.00000	0.40056 0.02338
0.00000	0.41975 0.01700
0.00000	0.45513 0.00128
0.04836	0.50182 0.00000
0.24360	0.55152 0.00000
0.40958	0.60710 0.00000
0.57717	0.65482 0.00000
0.73895	0.70001 0.00000
0.83891	0.71949 0.00000
0.92766	0.73783 0.00000
0.97568	0.74508 0.00000
1.00000	0.75263 0.00000
1.00000	0.75738 0.00000
1.00000	0.76072 0.00000
1.00000	0.76422 0.00000
0.00000	0.41756 0.04821
0.00000	0.43311 0.04755
0.00000	0.45383 0.04305
0.00000	0.48980 0.01530
0.05216	0.53747 0.00009
0.25337	0.58608 0.00000
0.42237	0.64204 0.00000
0.58850	0.68886 0.00000
0.75118	0.73519 0.00000
0.84841	0.75472 0.00000
0.93783	0.77419 0.00000
0.98604	0.78222 0.00000
1.00000	0.78973 0.00000
1.00000	0.79365 0.00000
1.00000	0.79511 0.00000
1.00000	0.79609 0.00000
0.00000	0.44379 0.07370
0.00000	0.45932 0.07331
0.00000	0.48149 0.07050
0.00000	0.51961 0.04056
0.06792	0.56689 0.00957
0.27292	0.61314 0.00000
0.43930	0.66592 0.00000
0.59987	0.71046 0.00000
0.75738	0.75455 0.00000
0.85234	0.77419 0.00000
0.93975	0.79378 0.00000
0.98841	0.80181 0.00000
1.00000	0.80944 0.00000
1.00000	0.81324 0.00000
1.00000	0.81505 0.00000
1.00000	0.81603 0.00000
0.00000	0.45658 0.07683
0.00000	0.47220 0.07674
0.00000	0.49430 0.07349
0.00000	0.53356 0.04093
0.08415	0.58182 0.00845
0.28856	0.62698 0.00000
0.45133	0.67742 0.00000
0.60881	0.72102 0.00000
0.76192	0.76271 0.00000
0.85621	0.78295 0.00000
0.94135	0.80137 0.00000
0.99034	0.81049 0.00000
1.00000	0.81818 0.00000
1.00000	0.82229 0.00000
1.00000	0.82457 0.00000
1.00000	0.82561 0.00000
0.00000	0.46530 0.07898
0.00000	0.48133 0.07887
0.00000	0.50283 0.07554
0.00000	0.54233 0.04246
0.09591	0.59218 0.00759
0.29990	0.63695 0.00000
0.45951	0.68465 0.00000
0.61509	0.72825 0.00000
0.76500	0.76852 0.00000
0.85924	0.78905 0.00000
0.94233	0.80704 0.00000
0.99140	0.81662 0.00000
1.00000	0.82420 0.00000
1.00000	0.82796 0.00000
1.00000	0.83069 0.00000
1.00000	0.83245 0.00000
0.00528	0.00684 0.01975
0.01048	0.00684 0.02182
0.01803	0.00782 0.02487
0.03167	0.00880 0.03030
0.04829	0.00978 0.03363
0.09932	0.01466 0.03910
0.15894	0.01087 0.04614
0.25064	0.01388 0.05122
0.35582	0.00000 0.05279
0.43155	0.00000 0.04888
0.50342	0.00000 0.04262
0.55308	0.00000 0.03539
0.58944	0.00000 0.03026
0.60915	0.00000 0.02870
0.62123	0.00000 0.02710
0.63011	0.00000 0.02620
0.00371	0.01204 0.02495
0.01017	0.01319 0.02570
0.01889	0.01426 0.02776
0.03246	0.01541 0.03320
0.05548	0.01865 0.03734
0.10342	0.02299 0.04215
0.17120	0.02196 0.04895
0.26408	0.02568 0.05290
0.37157	0.00665 0.05282
0.44794	0.00000 0.04871
0.52109	0.00000 0.04059
0.56805	0.00000 0.03402
0.60501	0.00000 0.02901
0.62479	0.00000 0.02723
0.63731	0.00000 0.02604
0.64606	0.00000 0.02502
0.00098	0.02057 0.03249
0.00880	0.02215 0.03308
0.01877	0.02389 0.03368
0.03386	0.02566 0.03749
0.06526	0.03163 0.04297
0.10874	0.03636 0.04536
0.18854	0.03903 0.05306
0.28498	0.04306 0.05488
0.39521	0.02890 0.05347
0.47527	0.00827 0.04700
0.54897	0.00000 0.03695
0.59179	0.00000 0.03131
0.62890	0.00000 0.02604
0.64966	0.00000 0.02483
0.66205	0.00000 0.02307
0.67077	0.00000 0.02213
0.00000	0.03578 0.04602
0.00415	0.03750 0.04633
0.01476	0.03945 0.04661
0.03377	0.04297 0.04698
0.07124	0.05161 0.05085
0.12493	0.06100 0.05376
0.21435	0.06940 0.06006
0.32311	0.07443 0.05857
0.43636	0.06947 0.05501
0.52680	0.05074 0.04303
0.59668	0.02088 0.03175
0.63992	0.00178 0.02393
0.67229	0.00023 0.02002
0.69384	0.00795 0.01853
0.70721	0.01315 0.01737
0.71652	0.01443 0.01595
0.00000	0.04762 0.05365
0.00156	0.05370 0.05490
0.01623	0.06174 0.05677
0.04118	0.07425 0.05911
0.08084	0.08414 0.06109
0.14827	0.09892 0.06373
0.24156	0.11076 0.06520
0.36105	0.12411 0.06108
0.48000	0.12297 0.05161
0.57196	0.11636 0.03625
0.64152	0.10291 0.02256
0.68558	0.08463 0.01158
0.71632	0.08082 0.00649
0.73685	0.09463 0.00457
0.74991	0.10330 0.00352
0.75961	0.10956 0.00282
0.00000	0.09853 0.06823
0.00000	0.10166 0.06882
0.00450	0.10714 0.06882
0.03308	0.11593 0.06882
0.08876	0.13283 0.07058
0.16520	0.15034 0.06979
0.27480	0.17283 0.06737
0.40137	0.18847 0.05693
0.52473	0.19804 0.04125
0.62158	0.19570 0.01818
0.69110	0.18944 0.00352
0.73451	0.18624 0.00000
0.76481	0.19179 0.00000
0.78690	0.20782 0.00000
0.79980	0.21838 0.00000
0.80958	0.22561 0.00000
0.00000	0.14448 0.07769
0.00000	0.15191 0.07812
0.00000	0.16199 0.07872
0.01645	0.18018 0.07957
0.08769	0.20100 0.07820
0.18886	0.22698 0.07382
0.30778	0.25297 0.06326
0.44479	0.27837 0.04262
0.57744	0.29161 0.01142
0.67227	0.29638 0.00000
0.74436	0.29505 0.00000
0.78893	0.29185 0.00000
0.81956	0.29760 0.00000
0.83968	0.31324 0.00000
0.85267	0.32282 0.00000
0.86197	0.33091 0.00000
0.00000	0.21212 0.08895
0.00000	0.22045 0.08840
0.00000	0.23240 0.08759
0.00000	0.25410 0.08528
0.06342	0.28463 0.08040
0.19961	0.31554 0.06847
0.33986	0.35156 0.04610
0.48744	0.38262 0.00514
0.62330	0.40303 0.00000
0.72809	0.41238 0.00000
0.80098	0.41462 0.00000
0.84555	0.41630 0.00000
0.87537	0.42470 0.00000
0.89560	0.44063 0.00000
0.90812	0.45103 0.00000
0.91730	0.45826 0.00000
0.00000	0.28759 0.09228
0.00000	0.29712 0.09092
0.00000	0.31016 0.08843
0.00000	0.33265 0.08500
